src/pos-icons/file-alert.svg

<svg height="24" viewBox="0 0 24 24" width="24" xmlns="http://www.w3.org/2000/svg"><path d="m14 2h-8a2 2 0 0 0 -2 2v16a2 2 0 0 0 2 2h12a2 2 0 0 0 2-2v-12zm-4 16h-2v-2h2zm0-4h-2v-5h2zm3-5v-5.5l5.5 5.5z"/></svg>

<?xml version="1.0" encoding="UTF-8"?><!DOCTYPE svg PUBLIC "-//W3C//DTD SVG 1.1//EN" "http://www.w3.org/Graphics/SVG/1.1/DTD/svg11.dtd"><svg xmlns="http://www.w3.org/2000/svg" xmlns:xlink="http://www.w3.org/1999/xlink" version="1.1" id="mdi-file-alert" width="24" height="24" viewBox="0 0 24 24"><path d="M14,2H6A2,2 0 0,0 4,4V20A2,2 0 0,0 6,22H18A2,2 0 0,0 20,20V8L14,2M10,18H8V16H10V18M10,14H8V9H10V14M13,9V3.5L18.5,9H13Z" /></svg>
